X: 020045
T: Bittersweet 
N: 099
C: BB
R: reel
Q: 1/8=360
M: 4/4
L: 1/8
K: D
A|"D"D2 FA "Bm"Bdef|"D"afef "Bm"dBBA|"G"BGBd "D"AFAd|"C"=cBAG E=CEG|
"D"D2 FA "Bm"Bdef|"A"afge "D"fdfa|"G"bggb "D"affd|"A"Acec "D"d3 :|
A/B/|"C"=cG (3GFG "D"dA (3AGA|"C"e=ceg "Am"afge|"D"dAAB "C"=cBAG|"D"Afed"C"=c2 AB|
"Am7"=cGGc "D"dAAf|"Am"afge "D"fdcd|"C"=cBAG E=CEG| "A"AFGE "D"D3 :|
